-----BEGIN PGP SIGNATURE-----

iQJPBAABCAA5FiEEB9cP28xEbBnKQwLObV8aePHcNh0FAmpqmDgbFIAAAAAABAAO
bWFudTIsMi41KzEuMTIsMiwyAAoJEG1fGnjx3DYdQrIP/3twUpgAst0YZMQTNbxh
cJY9Nvu3+prrFgUlHF1iAcw00wZU/3WWDlF8N3zb4ZmV9H6PPu9ZmDxnn2Sr0Xu9
JECoDW8yn2pkX8oVvnCg+40AyMJnFMGUDucIf5soT9RMzfcGDCuAT7QORshLfoKw
Eq6pOXN+Sz0doOupAWrBdY017ePfvk45GcG1qQRUFcG/Q/i1IvOWP99nUaEfqc5I
XbgGbIHrukthFCSV8dE2bgGpWd/LGPG6WrX+8qUA7vGnbNsCN/byTVq7h/eormx5
em73qdGEirMfrne3FxYCZQAdDGzgC2TeFcSAkAaL88RLgNjaE3Q3tGn1L8jyh+kY
XOieSFeLVWwNP7KJ56ppbKAmYS1al7Bmt9IvSYz8xK5qWkABr0anBG+4y79mXkZq
VIBmSWZSOzYmCEoJoIBwYHEzkszEEZHqxGCIgsJ9frz2zFGy1ezVnlQEVTpewyFw
JnOTpshsEnLHTnGidJWBO+OmI0A4jm34S3f0wCLG2DvuHIm4sayLkYsK2gKnIAZZ
IUcOtxhfHjqOqTHym4JzZ7Mr9TCxke+X4gi6QW/DPQUxl7LVq43X+l6nvsBnsAwg
KJoCv30z+K+1ofDhXPmPnABUqIy8QvWN2Y7FSSOAXkVOYBnorl68cQDgz+6UzkKz
WBO5PfIxhyKqwUjwj55T4ee5
=FE8h
-----END PGP SIGNATURE-----
