-----BEGIN PGP SIGNATURE-----

iQJPBAABCAA5FiEEB9cP28xEbBnKQwLObV8aePHcNh0FAmp1JEEbFIAAAAAABAAO
bWFudTIsMi41KzEuMTIsMiwyAAoJEG1fGnjx3DYdVn8P/i9fc0i+laohQLHXbXgA
IksGDmNfuxncQccpKXMT0iLTLVakFrRUUmueBkbgcUxVgraXGzD3hjy/QjTpuw1i
QDZDfgACtROJjTY3npEb4HgnSoyObLwIOGtUGqMR7QMFtVAMPNMKWLP9LhG/b+Ra
/o7Lx6tKpGSYXCWUC7tA/bMjbR/yGJ4uxtszzTVsrHPWcPVY4/K+t3f3DBr+8ajj
y715nN2+cSNg6qDcDK3QkvzzTn4ZBqAT5LbNnH2nJV14UKvoF18NQPug60Cm2z0x
vTVjSiDJd8DU7QBaWVFyATwzJ6lEYwXTmj/tZq/GNMegHuWBq+Trtplsp3jPYKCs
B+rt+f4PTL9Qwmn+qu+sw4d7BU1oF/ot0rlIcGjZ2HuJdzEb7/J+NoCwRs2aQoG7
PZcDbMNfVcJh3Nft6pUjxYqiIFUc7FBYaF+3QkEDnOcrbdTA+HaW7NKuvO/FEp/i
bDXCDs0liph/feZAKcN82/VYUqFo4z2oM4bhG4oUBk7CXwcUlhCnV2AA/kRIstZf
OhHVkDdV4sWdNFvUwE9Jx53EXrgOr5L/r9mRQJ/S2ycoDM32l06Nz5MwDwr8tN09
HT4ExkWf6kwasPemfx1vm0Qw5hnUEf9OwHCIgMkXBlICunp2h5xPmtwZlnDxzbQJ
Fo5JGZKRsQ3C8epybv1BoFyI
=YWMK
-----END PGP SIGNATURE-----
