-----BEGIN PGP SIGNATURE-----

iQJPBAABCAA5FiEEB9cP28xEbBnKQwLObV8aePHcNh0FAmpqmCUbFIAAAAAABAAO
bWFudTIsMi41KzEuMTIsMiwyAAoJEG1fGnjx3DYdqJwP/1euRmQRntKXHHX1uXXs
3qA2KQtkbVhLjU59VrQpJdJzRAmm1GdCYTHfmvAqZecbgoTvJ2gCitKeTsi6TLga
1x2j4xDUZrF0lQIQlZRwElPP7e3zDwlybUsaSRDi96dk3pyPBwcPkrsBkRjJmBD5
xf4VajMWfBxpM00k0dUmWCuhvGocAAxS3kRMZC9HqVCrp9d3umpKgJSYYnsWYyPr
//O+j0k5xW7SOyGfv9HpjYuvkvzSPIRozTCB9cn0nExHmqpd0QEP7L6ghd30zwyy
dlvWjwEIhzHlio7aB3mDdROEsAlwMk4QyP3AaYUMdFu8x65DrrzH2xM9w/ec7zmV
L2KOWy2Pzm9JZC3hgSkk3Dz5W1H7C79utw5BZTUzrOnvY5FJrAPQKkPwa0cdfOCA
LHxI6RpHf7Gk7n8iBtV51o9Bs3IW398n+/kLrKmlFHWqhQkJ6mKKndGzNiRWCfE+
p4FJi1s3hR5Fn5eTlfM72wlnOxoeaxFI39wrFzWxuYByQqs7hcGityOXXxUUXaxi
GPUs4gBKeuVW0ro2vjUO0wc8gxQKGHsAwWpfHhsryL4obG90evCWZhqd0vC6RFV4
t3kVWOd5Be5blm9CZMLZ9En+HNMnx97Q7rghlqeX5wTiQl0XFzcydMeeEUziUtv9
Xrhn4ufAABvce7Mo/u91wD3t
=P8pl
-----END PGP SIGNATURE-----
