-----BEGIN PGP SIGNATURE-----

iQJPBAABCAA5FiEEB9cP28xEbBnKQwLObV8aePHcNh0FAmp1JCIbFIAAAAAABAAO
bWFudTIsMi41KzEuMTIsMiwyAAoJEG1fGnjx3DYdxnMP/3W+5lA/aqJCxKuLa9tc
8Bc4UEqCdk1xWcTciZJqEa1+FjVOEht+Xy4ipLAzD3gprfmFtjNwwquoZ0pxEX0L
0umYpNqx0HIbu6GWdx4t8Km+UaGXOl+U9WmBKdfRAdLKu1P0vI5iyi+ajN4yvk0a
6mNg0KdG6p0ZNooo3dz5vnvUkmLlfo+EBRow4bWlri+68XpmsXMvx5084Q2AKHPp
dS6zsr0ZAIzv6SVe0RND1rrXHUc9hogSE5t30rBMQuQmsP+vR1hBq1VwCsRH1w2Z
jaVIIb7kqogf6+qR1JYMPhx2zdkaNWbMN9jYR5UGJ7MIxZaxXQsweLsE+e7cBbi+
2+puu1VgKoWVjaaHXAHwgRrRX2z8a3/clmy/rfmrWz+lD6H+GjCEACodsMsR8sVf
f7hWthVNh/0Xm4klZEr4LuPBnDg9988OhOKUNtvJHBlWb/NH+egN2J6+XDNSSJm1
+wQulYkmFG4L15L1egU4ZCD11jOFlzpFFHCQvr79D3T6XsqgcFmjaJZuZ94yyUjR
xsVKFr4PpPcQnOMnjhQ0p7Im2Itraz5b2Zioie7eFpRoye7XWqAzsjogDDcVEWvG
VO9YQ3KiySY0P19qBjzqJkX45zXnBLU/LgvSwd7tmrTLO1f0p4VVXbs1kdJz3lpp
dNcXR8Dur0uxh7MilHBUdj1H
=+4/8
-----END PGP SIGNATURE-----
