-----BEGIN PGP SIGNATURE-----

iQJPBAABCAA5FiEEB9cP28xEbBnKQwLObV8aePHcNh0FAmp1JD0bFIAAAAAABAAO
bWFudTIsMi41KzEuMTIsMiwyAAoJEG1fGnjx3DYd3H0P+gMOK4mKiV5qt4kb2L04
mdQdRb/7Y3qxXuUS5eTDkgLz9D3t/hyfe1Gr2PqLtHiyXQUAnaHlHuNYJaEHMJ95
Vm6jbLKyEsHye73XQmBrD0+RplZFAxUvmmEW7O0snXseIjnDHYYHEwJV3dhPzxoQ
W16Y5wR3WDaAyYdt2W1rX5itciSvXMrrv231N9Kp2QINeSxCHxMAvj9dN3SxFPiH
fXiG1gj1Bgjcb5q8vI4RZZaA8meRvKmD+E/w2yj+oSZEjJdmbgDTkPqAgzSxK68G
3FyzLNjbPMDJXpmJOqI9d5EgfTJouURUGpw2iloq0tIGgLOxZE5D1VJ6PoUkIKWD
osq+YIWBgIVOZb8ZvPdnOtKZGYGsVJkbxszSHcO7w2UJL45U04XAjB5isAf+K/M2
yOhKvgjdtF8cwM3EqhsaX+NbRUmvBcvtw+25xNNsW8XjB6KOVKNwAgd6EDZ5mnmW
vfb7j1AgkNyDnlQ0HewQKEZRUxrJCBjGPT5PWAmqYrkbbnbMNA7F6JXrkNSeqxmU
S0iOxZ6eLN0EDwUeVjsyWTBncaxLfb97+ksRoYtHSrOVd/W95T7dA4o8AYAjhCdU
NeK2pnW1m6J3tgIBR6T4RoeQuaKujY1krJHSbG6PEvIK3hGMqt+8sCbVzR6b//Wt
q0wVYOi2qL/EDpTi5wUoyWaD
=0dfR
-----END PGP SIGNATURE-----
