-----BEGIN PGP SIGNATURE-----

iQJPBAABCAA5FiEEB9cP28xEbBnKQwLObV8aePHcNh0FAmpqmBYbFIAAAAAABAAO
bWFudTIsMi41KzEuMTIsMiwyAAoJEG1fGnjx3DYdB64QAKX2qjAJmhpsHdExTwvj
V11ZviswHV3LBQv8vsfLq4h9q+NSMnkT5yUCShzUv2ZRZupRvrCCWadieY83H+ks
i7vXamFfILKyaots8HWAmu+prIAF/rcwgH0kpQ/qaWKfCCHRE9QM3alpi3HXdqS4
1fSUMCn9tXb4q9DO0o5UTJik5pUW8cEyTcjV5ncZWf9QespnWKTwKmkHl5USTpbV
Xz2E/ojyodpR5bovyNsTbPrYnis7VBk4SecyjE1qsshHwNit3qp0itg1zUJVcZo2
vbJMl9sjk5a5A432EH9hiDBvnxuHalHE2BBHfDuNmUCpYmBZIwWpCZEtmi1nI9T4
PbdulbCs4H/nVthgSk13eamhgCP8tRUxQ0Et60GZ1aJMQgCV5Is388GHhAJd2B5c
cvLulrJ53kHAwxTP1EVDxOrXsOdZKbjL++KcYAgnFhOweoSsPheM5HiJp32MWPW+
xHjiqvNESA1mTQvVJFZXj7CTg1Zo4E/sCwhMbXPmP6qakBsKQazVkBx1WGdHLd8x
40u9JqY9IFcnfwPfov5QG+OVzNVxti3+txIziqHfmyCTwkatbegCuE1ROhigORrc
ji6SsvGCPJgqizMh48AxXCKdqnoa2oUhBw27pN3gonwajibKU3t3WoVaX955aDTX
7u1v/mU9JCqIb+NYIJg0Gcj5
=S9Ic
-----END PGP SIGNATURE-----
