-----BEGIN PGP SIGNATURE-----

iQJPBAABCAA5FiEEB9cP28xEbBnKQwLObV8aePHcNh0FAmp1JCUbFIAAAAAABAAO
bWFudTIsMi41KzEuMTIsMiwyAAoJEG1fGnjx3DYdDgMQALxdavgdDvRmrL8PMal4
4t2u891R9PFOnEr+vp1HxpmuOTgwJJW2/UKfcA8UNg22TGDsx5KW/d7xdMAv4PpX
9i+vphbz1mEIA4p8tMC4I7fVfpf221WU2RZ+8Y7NzIV+ppbczLSvEKMPYxtAhN6l
uGhnICkKjwiaTjlrVeGojGJooQyFzUSlPYLtTvGhW4rMwl7VFAp/QrhIMr/JS73c
S67nmA9GBrwCHtS2yXIPAWA+RKYc66O41trfwlnx1jfk1g6h9Fkb8cYb/w//Wjuv
ocX4nBRF90suB08QlgSi461P2zSNgAA9S2pVdq0iwUOliqVZmAcS8fFH4gc6skvr
1Tb0fn6jIFddy3oGRak3PlGWWpbl2J1x1hJa5SZ0IrT09yyCbCK6fgMeyFb9tHOX
RTIcGCpr1pRMrAb8gTUe6NnMLrNwuWRXq98NmIzNh03FB+bhNVGVRwtqaPdqKD3g
+O5GRhKVJNTdiEYBaaWWJJgLu11JUTgyWVOLQ2dgmPWzfssyD6Jc/SzLBR1CAUWR
7o5Fb58edGChy2w2yyD/4MbvVDNJOHGra5N6oGTmbxXwG+W6ewn9qEI+vY/19BLJ
aqJszBZ4WzmVyRadQGoL2+HMVd9SRCFXP3nuWfigo65wTJCY8xmWMmTLrbhm/RZX
FYUFnmttBcU3tU+A2yEriiQk
=iOcX
-----END PGP SIGNATURE-----
