-----BEGIN PGP SIGNATURE-----

iQJPBAABCAA5FiEEB9cP28xEbBnKQwLObV8aePHcNh0FAmpqmEMbFIAAAAAABAAO
bWFudTIsMi41KzEuMTIsMiwyAAoJEG1fGnjx3DYdAqkQAIWv/bLRKg9h6NpKalMU
qDWrdCZteGXCzTUogF1JgjOBEkTzJlSa84tmDBlLAdbd7OtG84IzvVJUMmFCvT2D
6r+z//CkvynlpGTqA1twdBx46H+dRTsDDLo2I0pPSk0Xzr2JiGIGzIQ38ElMqzbF
DhWbPhx34fnq63xg6vX/pc40b1vDsp619xJP88Flzz4CBSJngP/oX/ZWdhpjl/qP
snNvVBluWYYuDdMyXS0EUvHuYLZFLCFRtQDctPmS5Z9QhZMSz6QU4R4p2Z/EKM01
kVMSEjFtUlBl0u51Ol0lcy+qqxyzDWamo6VjiYhkxN4RPX+BHbvDpOQOifHkoPac
qFg3ZcxpNCDGibBtqOFK91c36+Fyhr90HVXNiDxDwJmDwgtNe5DyZX0JLiXgO7XU
+bnMsyqwfikcEe5WOgtNyxFxEPYM+CxyZPD5E8f9MTCATz7V58+0xQ8rECY3HcFE
J/MghtIqyKzjKksxyMwUPrx74F4Pq0ztRAg09YYsqyFrsmvaq5E8CjJxpMfMzr/m
Yg+tiVfAk0gUN9qiL8++aGlfMknOc343I0aRF6Z6+hizKvJ75FENfnDQcajSCQSX
unx3f2fdhVCK8OPnTacyvjZpo301ASLLcVKOaPIxRWbHF90TJZNZLYMeH0APS9nD
HoRmNZm6/cfnH3yFtVH5J3f2
=kjkA
-----END PGP SIGNATURE-----
