-----BEGIN PGP SIGNATURE-----

iQJPBAABCAA5FiEEB9cP28xEbBnKQwLObV8aePHcNh0FAmp1JBobFIAAAAAABAAO
bWFudTIsMi41KzEuMTIsMiwyAAoJEG1fGnjx3DYdp5sQAMnxrLk463NfpsQsJJ0N
nWBN1ZtLLrB7BApOVlnakIsk59NxdaWM3JxKXJZpubPQiW8+ZFv/aMqTujfzRXO+
Xtdbh4lKZmaLiVD1YVSyXwyShSSzo9q56OGrfFjRlkMBP/gxn/Ld6nir6GOYFl/U
I8rp6tnHlt/LS5ojIvAbOBmOyKQQ42LTsr1NVyCmMPHYeSkSolle7G4JU4OVwRY0
AqMg0Yyyo8+weoqzpnTCeBm843NDXo4gfYodi3tXb4Ziw9epzi6bPnn/F5k1kOuu
+QczWKgqkY0V93h1PUiTbwq+h0vFMUlZDDz4rFGHoQj5eUU9iSngCs3AdyYjLjI8
v5ZMQT8DAy4vbLQ1BWfmMSnuk+ttFdHojXVy41nJVx4zxgCLaWkItgAMQFOIwSzO
JF1S+GGIZ3909NjEbOAZnswnFm+mAYBKL4Z7ZGsLuvQ5Of1hPqdp+tcOpRuJk7ck
ip0kOP7yTNd7ZnNSyvctdWTuAxE2zUuUvD9K4tfEhscIVSvw7UeGgUCY0Yw3mFwu
BDVAH2+CVxXXcIOZsFvEs/NIIvz2p8CXToZ/iUfpcfEQgGYHTlC337xOLiG/MgcH
jcfEnh2DpjxPmSN1G/9EZddSHeOn8RltSAtfT4r31dfKrGfg4Y5MWWlPKxU91uuJ
e7NV6F5C6TanFkkwJY4KZCA6
=6F5L
-----END PGP SIGNATURE-----
