-----BEGIN PGP SIGNATURE-----

iQJPBAABCAA5FiEEB9cP28xEbBnKQwLObV8aePHcNh0FAmpqmFgbFIAAAAAABAAO
bWFudTIsMi41KzEuMTIsMiwyAAoJEG1fGnjx3DYdyHcQAJr8Wrjl8es3NunQqVDj
FZDcEIQoY4/g8zk2vq1bldMw57fso6wWQhNOJxfAyzvRR5B224z2blWOqLeRowy9
TPQZHo/5D1re9mNsHUPSvQzw/DBH6CVXIKMkdJC7YeDHReOoXgB4FoaGp/hOu9Em
tHHAuceZt1pumK5xyT3lgSKSZA8ftTrzJP5wMtAkXPyjwjsj+pybNB5Di5sz98tJ
iK0ix+i6U2GH8JPWhi7Y8CKX7E4qvcLET9uEDspFCkBlzQXGLPi/eTQS5fbE3qGz
LLrIhpy+derK+pH5S5kiu0JmJfK62PklOUC6MH/XPm0H3VVTU6zXG+SRQ36cFSL0
wDR6Ts3SJ5on36QXJ47UQPhj6wUXNbVTMXszKCxS0g9RHasFiG86PiazhqH3npOX
iPEAJhekiyegiicvHfQfbPxaaOlxoQbKUFiw9Ia7AEHuJUBeOH3J9WdZNra5cZ4g
dF6eno8B71FKX4WmfarMfU5zwymD9I5JU177iMObTayesOiorIAh3Ke+xGGMygBz
Nm6ZwaMOLNyl/+eTT3srX4f993Df4+FDAsRbDzzY2DzrBrusN+r1CzdoPSAksvWH
qfxrPzlFIVHs/J+D1a0F9/aFxMiwO8uOxdjEchTFyaRUTYFEsVx/ClWzq4/uSs4+
vSTDa7i2QK4MWEcq6T0hKl0p
=2I41
-----END PGP SIGNATURE-----
