-----BEGIN PGP SIGNATURE-----

iQJPBAABCAA5FiEEB9cP28xEbBnKQwLObV8aePHcNh0FAmp1I/4bFIAAAAAABAAO
bWFudTIsMi41KzEuMTIsMiwyAAoJEG1fGnjx3DYdStEP/A1IPSqvtSNriSK/JYSd
48wrMowz7e7prd3KHn48f3+FVuercaQq0PmcCflxZQqXW56HnwrSA6NgrA1C84LN
OPi3vn31y3/XjIuuQa4ph/LCQq/zQIesX5elqYeU2QIXIpy/uxmNQxJ7FoqMbPEQ
iFVWzj/Y6WoHuvvH9W2EEo1NYV6VZJ46aB+KtPsHCEGoAPrxy2OJkuTRIsfRRod4
TwFoJupVfIQW2Bot4IPpYtsleq/n+Rdui5b4bmQ1TbPuUUN0gw+74WG6U9Gyyw23
6f4rnBeYo3/oAgJz5TRG36C1K14UxyiI0pVUbzNsM+5qr7CzkJOTGbHNBL1pN1Xh
yDFQz2LpJKGqmMXuLEJYou/sWefRxpmgcEtE5/GZ2Elr7VRBj1E7Gjovs41K6h84
K9BDLOZZ9VkbRIi3eorzYpOVXT8klBxVOrfzd8SfQzWjCALDrtSvEB+x4juiNjo7
nZ9HIUSxn1Bzy7vueyFpcGXj0aZjW9wbYT1lixfUF9XntUoAkHiYoiqN/nTuMcjQ
Vd1LqbuTD3b/Xzw6RhvRIt/DsdGqSYj6zkX9BcXqfKusHN5PpUl3z8+mOF6fE72d
KwQcBHp3JaAdnn0gyZ3OLX371TIcXffoWfr2ibyso+ch4L+BYNNsJ2NP9trQ+J/y
Lm0z9QjYZ0zZDkme3UADL6aO
=fa62
-----END PGP SIGNATURE-----
