-----BEGIN PGP SIGNATURE-----

iQJPBAABCAA5FiEEB9cP28xEbBnKQwLObV8aePHcNh0FAmpqmBQbFIAAAAAABAAO
bWFudTIsMi41KzEuMTIsMiwyAAoJEG1fGnjx3DYdn4UP/04xW8cdArpkrlsoghqO
rO5xopQWMPM6VLKcE45Kcqfmez2K8XZ7B/IUGXfddJbmAQ0HtHqBZdDOlYYnlakn
o+dSPhwoB2ogEDzTtezP/WxyUNQWwCdf+KvfxFEfc5iPg9He9kEYnQexPaWmVUoY
Zs5P64WfjBZnJ/a20RN2WO1Ww6y44+Xpm4NdRvMx3CBxwz2UsnNffnXGAl/k9on+
kQwT68/MoPtLBZtnRMZXIoXmyLUhWy7kDv51vQ5TPEbHwAOIWjnJS0pcS9dVSEpE
BLDaaigrth8erWn17R5qUqWp8/8JmnbQeEisFxWR5vZEBO78rt5U3ly7Zg2Zc8dj
6/XZszcGoxzEGkMvpvyrDllLlvDaj9AfUMkrHTMaA++/ZTdoOxxw1s2ZvtmN04YS
vzpdrHqGMwiqfYy2/QUP4iDRJsstEydxDWuibOCwueKLwgRylfjAWsXZUD1dYkIj
aLPKi/2CXltR7yaKG1lonaQ0bduiKIeJ/hoIJgeIIUyuBKOHDTdCg40lCiz/A1tq
YEVlkQZ1j1Sw57csb1igeL2PXM5PmQ4FLI7uFqFLVu0lguWbSHfjEIn1QZuxtbQK
f7h4EsnsvfUL6VmT7fDPJ03syo6mkixU8TwP/WI/aE4/d2T/yPK9HqjY3WyEbNGp
AGBjjG2AwW+7eYZa20/RGRZ0
=YvYm
-----END PGP SIGNATURE-----
