-----BEGIN PGP SIGNATURE-----

iQJPBAABCAA5FiEEB9cP28xEbBnKQwLObV8aePHcNh0FAmp1JA4bFIAAAAAABAAO
bWFudTIsMi41KzEuMTIsMiwyAAoJEG1fGnjx3DYdBFAP/0kyMb/XkmX4E6pgcRai
D2Ue3rzv0/n/mIGkLN8QqU/ORNwlw1w3QqH0SWpbALSwPABRbcZP47QWJYfU04NT
qjDikeGceReiwWopGSy3gzpLJwykx8NB+nmKf7qaivyAJAp8su5WOlNFvKK0hcI+
dkMnotZsDRcXY4BxVGZgcjFhYr2e6+Ikgw+wf2hqkcoY9bOatEaiij1Q11Cbumgx
ZUQ63yhnE7FbKMZSZGk4jIUjkLJtcOx8Rd+3Dva+EDLlIGre1TZoWl3FgE3rUDJ2
G24LiQwgYt1LCjg/QtrGDQ/aEXoyEh6Ug4MR0ujuWjicTzDcRHdxPMEmEKZOYmJ5
oonpm5yB+PFE9o3pZSw1e4pF0eR58OsLJ2Mn5tqC6uAC/UZ+OzaWnbdQfpv2MmV5
RLHEH3mbjgJECH+A1Ht+Z+lWsVL8xUu9/34pG8RzzXkwm6iTGpXL1wjxwQ1cCRv2
ajD91c8tQ6Ejr1Kc6DK1Jf3rsEWbZAIzZ/ctTn2ou64nS/ZXHJv/SrLpIhEA+MM6
4is6EO+d+V+TqCReEZpBGHyN0in5i8EXnIYI2+Q7Y3Qf3Pnokw4VK3YBiQ9miKal
BcfsP8EP28t3P45+bJZ6ZCaVVMONf8AMwkVl8L5BaOVr/buUVQVAk12XKjGXapmh
VOsHrfHNjoEW9TKvCy7wsygh
=dTXF
-----END PGP SIGNATURE-----
