-----BEGIN PGP SIGNATURE-----

iQJPBAABCAA5FiEEB9cP28xEbBnKQwLObV8aePHcNh0FAmp1JAwbFIAAAAAABAAO
bWFudTIsMi41KzEuMTIsMiwyAAoJEG1fGnjx3DYdFx8P/AyuTiRxx/mrGLW3rATQ
MWWv9Dtrl1a8jKZVQErTttXk/NUZiOopw4XPmgk6dZN5UP8vijRzqWLp0+g/HO6n
4a42gi8yhq1RhdxBXvMNOy2b/2GQg9mhqDrexCDKzMiUbqL7X+7weYZOPA/GPNqF
V/wRVZXPn5kzbnR2zwecZUvgEkA8XHlE1patq9of+Q7zlU8AzKpXXRnvELUpsfq0
gNWMin67K3MlcEwp+k2bYV8adA2bZ3jBhcJ1Pw45CpmAKH4tnFqYblukiRytZ0yi
MC83SZTWcIy+geU8a2FRTTlOXr91P5R5UVsOPQpGGWVzmn5tXmdyiPMSgO66O5bI
nKEvJE5oB6JSdwkoRKyOVcr7mEPRfCDf7DAAXXD8alGzbihOnuMlczkiucWUNLw4
8j4R3BPQmE8d3frJm0b9qgkzA7OYqIN2OHsuWMlOGCVs72oXmSZgjo7EhcxHBRcO
8+2L2X+5GLyhSyUf3kAiFreMFQ93ociIlCp0Za+qVIijMbmUAg0i0Xn7KhNZorIq
yVVJTJmhKKvlp32WmQnRhOb75IwIX+QimWw7bweU6S1AAz0FAV8fhQCIyTRpWt8U
3CaqNncf3E8f434nttLJMAH156N4K89QV7IuBA1NRsnoZpBWkuRUrpfNAlLbglWJ
3TcXrAhE8S0pdmB+ddZZSQGK
=kYTw
-----END PGP SIGNATURE-----
