-----BEGIN PGP SIGNATURE-----

iQJPBAABCAA5FiEEB9cP28xEbBnKQwLObV8aePHcNh0FAmp1JEYbFIAAAAAABAAO
bWFudTIsMi41KzEuMTIsMiwyAAoJEG1fGnjx3DYdP3gP/3xsPD8MTrTr/XIkFzYI
h1u028t7MIXDc+bfBQVjeowdJf9UeeZdJsplBmN1NbRO3LCWVCgTuy7mO3Vna87O
MTzZBGm9pxPM5whWQZ5GS5C7Pz8+ViSg1uJRaXbWX4TZTi4IdQbZfiWgNLa+n+8B
BLfJ5hQxrkR/pEzhTQuExqPtU5eDXwd2qSiNiV87UVYJMYUJpYBp5CygNQbGNR2i
aK6LuFD2X76RltQmbSzwDT3s9q6tsYkWvsCRJC8zRWkIHd1pDVcutUryC/WCRxF5
Lt/2sQ0HhKYI/Gk455AvqUxrNbbfD/oN3zbeT7Z38+iZfIPx8wIYwSYiGvHsMmHn
Hqqu5Js3lWR6dX3zoAeLf1wrinqH9rb3qC3/V5Dx1zQObKZngTYA8dRSxJYyk4AK
4sDzFrngCKxETzXgFY5+9M1Nd9xNgm40m5bZDdPixuxC4lgGNhslG018+oAN2gkz
df4Mfk/Jgyn7zgtxik2LmnvKZzkzHrRJVwFTQ3lyuYTp/rDOBcXveP0hp3paF/se
9hyFloNSzzYqGEkO8VvZa95XpVhMPimL62NNqXfS4rjuIu/fKm89GMqp2susYarT
7bD1EYALD+5Fz/VuGyvDb30g9IwyB0OqwN7/xe6Zg7rLCPeIf803mHjbnnsoREH3
mSYVJXYoi4c7tVq5nw/R+7vO
=sOpl
-----END PGP SIGNATURE-----
