-----BEGIN PGP SIGNATURE-----

iQJPBAABCAA5FiEEB9cP28xEbBnKQwLObV8aePHcNh0FAmpqmFEbFIAAAAAABAAO
bWFudTIsMi41KzEuMTIsMiwyAAoJEG1fGnjx3DYdObUQALAPMGslkKX8gz0jXh/S
nnj6TDHA3Fpmq9gER5xhZqCQiluc9A8cnbf0N7323bfV9iMUd4lfj9cU3quWSDyo
P1KSIdf29DK5vzzo6J+Ebum3eDwwK0PlhglRE1/AdNEMxJc/BuHGH3I6sF79V3i3
Sgm7Wnv+wMJRWuNrNVDBBvNuJDXok7jsoFhzfhJFWqg6KzUKIHqbBtEezPMXJGZj
IblwCUIe0Z3Pej6Oxz2jxkWx+YsgBvF+m+3KiZSE8769+K/NqELNyRtbVcH4ywS3
eBOSLbgUeVNhvh/qS2ly+psFM78sEbuccaHKz2cpEF4V+ukeZ8pVzXpMCEShBBg4
Qf/17SZBpnxTG66JpygGnVoSQUhNvVCEgZvPCpiff8hZ9proAiLPewj9EXl1rJur
aF3th2HRe8ZDFmgIXowb522Pv9nQ2zQ5NB9vuJrXHFptq9B5PYkVFnXeGuIjSmOw
/Jg7dz5U6iH1USpyQHsU6eBy71DlcXUZu/fDyb6dvKRpSHKksPNwBD+bl/edpoVp
c0sBNcGMo/BtzGMwSNc0MHpfbsqblxoPiUDDs7NbGzXl7r4Dhz2kQCKQm0Vq4o76
ZIcYbKf17TnekFuLDJu2X1QyyuTYqCx/w/EaqHuNmw6UkpQZPN4axKvkeXCRimDC
0gDgP63j/Ywyp9/brPa5i+CJ
=A+X2
-----END PGP SIGNATURE-----
