-----BEGIN PGP SIGNATURE-----

iQJPBAABCAA5FiEEB9cP28xEbBnKQwLObV8aePHcNh0FAmp1JAUbFIAAAAAABAAO
bWFudTIsMi41KzEuMTIsMiwyAAoJEG1fGnjx3DYd4joP/1YBx3oJdvdOj9wpzRL+
d3C6LYi23x3ryLYpQ9TGrofcPgPTLUPlH5rxqqo0aj8PFAwaJCIlCZuSGMWI3oZ6
mc/3KERAEXgcJY7QZ0+uU30T9zs3iMQx7+igylo+jWQkYVTIOMFc5RDzD/jA2nOa
uxIf1Uso0ZIFRyukaU47NZ5e7BTjwKZxdCDoYEMyZSyQazrU29aZAcH3PzJjR0cH
3+kazj9ho4oh1Cfy12jsvgRUhBJaOwMpENyaqgpXKVIMLW0bTIkgT479A1Xpq0GD
drT99FNs3fzj5mavQgUgzUYGk8hYJTse02wwURuHBYKfxRupUH3FgPmPNyB0cuJo
mrB88coT53tDumr5XgONEcdsO7Q8oSQif3Dv/kvRut6B8aPWgFHC+AaEj7cusWPI
4UuugGL7nHA2YEBCv9U0rLZKCEQ/e68DA/I59f+zZYIukxZGjhZnkiwEfh83ht9C
Y9Iqp39pCnSwjEtGCXJyvHg9p+Wj5wkMHxw0FztBDFAss0rihjjIbOaBpovoVY9z
cQhmNLjD28vygp+S5zGewSSOGlaWdfTYXr5wsNfX2xBzSUR99CFTNvhbAk/qh+lc
UPT7tMevGD+cqXdHoqQGXPBF8Pfkh6bctCHMk/kasVr9mTYHzaAB9yXpM08Ce1E3
YtrMiTv+nGzeXAqO3OL8tJFW
=fCfz
-----END PGP SIGNATURE-----
